assets/icons/action/new_custom93.svg

<?xml version="1.0"?><svg xmlns="http://www.w3.org/2000/svg" width="52" height="52" viewBox="0 0 52 52"><g fill="#fff"><path d="m20.1 26h23.9c0.7 0 1.4-0.5 1.5-1.2l4.4-14.9c0.3-1-0.5-2-1.5-2h-36.9l-0.6-2.2c-0.4-1-1.4-1.7-2.4-1.7h-3.9c-1.3 0-2.5 0.9-2.6 2.2-0.1 1.3 1.1 2.5 2.4 2.5h2.3l7.6 25c0.3 1 1.2 1.7 2.3 1.7h28.2c1.3 0 2.5-0.9 2.6-2.2 0.1-1.3-1.1-2.5-2.4-2.5h-24.8c-1.1 0-2-0.7-2.3-1.6v-0.1c-0.5-1.5 0.7-3 2.2-3z"></path><ellipse cx="20.6" cy="44.1" rx="4" ry="3.9"></ellipse><ellipse cx="40.1" cy="44.1" rx="4" ry="3.9"></ellipse></g></svg>

<svg xmlns="http://www.w3.org/2000/svg" x="0px" y="0px"
	 width="52px" height="52px" viewBox="0 0 52 52" enable-background="new 0 0 52 52" xml:space="preserve">
<g>
	<path fill="#FFFFFF" d="M20.1,26H44c0.7,0,1.4-0.5,1.5-1.2l4.4-14.9c0.3-1-0.5-2-1.5-2H11.5l-0.6-2.2C10.5,4.7,9.5,4,8.5,4H4.6
		C3.3,4,2.1,4.9,2,6.2C1.9,7.5,3.1,8.7,4.4,8.7h2.3l7.6,25c0.3,1,1.2,1.7,2.3,1.7h28.2c1.3,0,2.5-0.9,2.6-2.2
		c0.1-1.3-1.1-2.5-2.4-2.5H20.2c-1.1,0-2-0.7-2.3-1.6V29C17.4,27.5,18.6,26,20.1,26z"/>
	<ellipse fill="#FFFFFF" cx="20.6" cy="44.1" rx="4" ry="3.9"/>
	<ellipse fill="#FFFFFF" cx="40.1" cy="44.1" rx="4" ry="3.9"/>
</g>
</svg>
